flags/bq-sa.svg

<svg xmlns="http://www.w3.org/2000/svg" width="512" height="512" fill="none"><g clip-path="url(#a)"><path fill="var(--flag-palette-blue, #0052b4)" d="M0 204.9h512V512H0z"/><path fill="var(--flag-palette-bright-red, #d80027)" d="M0 0h512v256H0z"/><path fill="var(--flag-palette-white, #eeeeee)" d="M0 256 256 0l256 256-256 256z"/><path fill="var(--flag-palette-dark-yellow, #ffc635)" d="m256 133.6 27.6 85H373L300.7 271l27.6 85-72.3-52.5-72.3 52.6 27.6-85-72.3-52.6h89.4z"/></g><defs><clipPath id="a"><path fill="#fff" d="M0 0h512v512H0z"/></clipPath></defs></svg>

<svg width="512" height="512" viewBox="0 0 512 512" fill="none" xmlns="http://www.w3.org/2000/svg">
<g clip-path="url(#clip0_46_27819)">
<rect y="204.863" width="512" height="307.137" fill="var(--flag-palette-blue, #0052b4)"/>
<rect width="512" height="256" fill="var(--flag-palette-bright-red, #d80027)"/>
<path d="M0 256L256 0L512 256L256 512L0 256Z" fill="var(--flag-palette-white, #eeeeee)"/>
<path d="M256 133.6L283.6 218.6H373L300.7 271L328.3 356L256 303.5L183.7 356.1L211.3 271.1L139 218.5H228.4L256 133.6Z" fill="var(--flag-palette-dark-yellow, #ffc635)"/>
</g>
<defs>
<clipPath id="clip0_46_27819">
<rect width="512" height="512" fill="white"/>
</clipPath>
</defs>
</svg>
